X:24
T:From Hannu
C:Traditional
R:Polka
M:4/4
L:1/8
K:Am
|:"Am"A2ABc3d|c2B2"E7"B4|e2ef ed cB|1"Am"AB cd"E7"e4:|2"Am"c4AB cd||
|:"C"e2e2"F"f3e|"G"e2d2dc Bc|"G"d2d2"E7"e3d|d2c2"Am"c4|
"Am"A2ABc3d|c2B2"E7"B4|e2ef ed cB|1"Am"c4AB cd:|2"Am"A4A4:|
